assets/8_spades.svg

<svg width="822" height="1122" fill="none" xmlns="http://www.w3.org/2000/svg"><rect width="822" height="1122" rx="50" fill="#F1F7EE"/><path d="M343.977 1087h-6.6c-1 0-1.7-.47-2.1-1.4l-19.4-49.3v42.8h6.3c1 0 1.5.5 1.5 1.5v4.9c0 1-.5 1.5-1.5 1.5h-20.3c-1 0-1.5-.5-1.5-1.5v-4.9c0-1 .5-1.5 1.5-1.5h5.3v-51.9h-5.3c-1 0-1.5-.5-1.5-1.5v-5.1c0-1 .5-1.5 1.5-1.5h17.5c1.067 0 1.733.47 2 1.4l20.6 53.7 21.1-53.7c.267-.93.933-1.4 2-1.4h16.7c1 0 1.5.5 1.5 1.5v5.1c0 1-.5 1.5-1.5 1.5h-5.3v51.9h5.3c1 0 1.5.5 1.5 1.5v4.9c0 1-.5 1.5-1.5 1.5h-22c-1 0-1.5-.5-1.5-1.5v-4.9c0-1 .5-1.5 1.5-1.5h6v-42.7l-19.7 49.2c-.4.93-1.1 1.4-2.1 1.4Zm76.118-29.7v-3.5c0-4.73-1.333-7.7-4-8.9-1.267-.53-3.1-.8-5.5-.8-4.533 0-7.267 2.13-8.2 6.4-.2 1-.7 1.5-1.5 1.5h-6.4c-1.067 0-1.533-.5-1.4-1.5.267-4.87 2.233-8.43 5.9-10.7 3.667-2.27 8.333-3.4 14-3.4 11.933 0 17.9 5.47 17.9 16.4v26.3h4.3c1 0 1.5.5 1.5 1.5v4.9c0 1-.5 1.5-1.5 1.5h-11.8c-.867 0-1.367-.5-1.5-1.5l-.7-4.6c-3.6 4.87-8.8 7.3-15.6 7.3-4.267 0-7.8-1.1-10.6-3.3-2.8-2.27-4.2-5.87-4.2-10.8 0-6.47 2.7-10.9 8.1-13.3 4.467-2.07 9.8-3.2 16-3.4 1.267 0 3-.03 5.2-.1Zm.2 14.6v-7.7c-6.4 0-10.333.3-11.8.9-1.467.6-2.767 1.2-3.9 1.8-2.133 1.13-3.2 3.2-3.2 6.2 0 4.6 2.633 6.9 7.9 6.9 3.467 0 6.167-.8 8.1-2.4 1.933-1.67 2.9-3.57 2.9-5.7Zm37.388-26.2v25.2c0 3.13.4 5.4 1.2 6.8.8 1.4 2.3 2.1 4.5 2.1s4.334-.47 6.4-1.4c.734-.27 1.267 0 1.6.8l1.8 4.6c.067.2.1.5.1.9 0 .33-.333.7-1 1.1-3.2 1.6-7 2.4-11.4 2.4-5.933 0-9.833-1.53-11.7-4.6-1.333-2-2.1-3.93-2.3-5.8-.266-2.53-.4-5.2-.4-8v-24.1h-5.7c-1 0-1.5-.5-1.5-1.5v-5.2c0-1 .5-1.5 1.5-1.5h5.7V1024c0-1 .5-1.5 1.5-1.5h8.2c1 0 1.5.5 1.5 1.5v13.5h10.1c1 0 1.5.5 1.5 1.5v5.2c0 1-.5 1.5-1.5 1.5h-10.1Zm43.514 42.5c-7.933 0-13.766-2.3-17.5-6.9-3.666-4.67-5.5-10.8-5.5-18.4 0-7.67 1.967-14 5.9-19 3.934-5 9.6-7.5 17-7.5 3.667 0 6.8.7 9.4 2.1 2.667 1.33 4.7 3.17 6.1 5.5 2.667 4.53 4 9.77 4 15.7 0 2.8-.133 4.33-.4 4.6-.266.27-.766.4-1.5.4h-29.4c.334 4.8 1.5 8.53 3.5 11.2 2.067 2.6 5.6 3.9 10.6 3.9 3.667 0 7.434-.87 11.3-2.6.934-.47 1.6-.2 2 .8l1.9 4.6c.334.8.034 1.47-.9 2-4.4 2.4-9.9 3.6-16.5 3.6Zm-11.9-30.9h20.8c.134-8.33-3.133-12.5-9.8-12.5-3.933 0-6.733 1.27-8.4 3.8-1.6 2.47-2.466 5.37-2.6 8.7ZM61.773 223.1c0-22.6 13-40.8 39-54.6-10-5.8-17.5-12-22.5-18.6-5-6.8-7.5-15.7-7.5-26.7 0-16.2 5.9-28.7 17.7-37.5 11.8-9 26.3-13.5 43.5-13.5 17.4 0 30.9 4.1 40.5 12.3 9.6 8 14.4 17.8 14.4 29.4 0 11.4-2.9 20.7-8.7 27.9-5.6 7-13.7 14-24.3 21 16.2 7 27.5 14.4 33.9 22.2 6.4 7.6 9.6 17.9 9.6 30.9 0 17-6.2 30.7-18.6 41.1-12.4 10.4-29.6 15.6-51.6 15.6-21.8 0-38.2-4.5-49.2-13.5-10.8-9.2-16.2-21.2-16.2-36Zm102.3-3c0-10.8-4.9-19.4-14.7-25.8-7-4.6-15.4-9.1-25.2-13.5-20.4 11.8-30.6 25.2-30.6 40.2 0 18.6 11.7 27.9 35.1 27.9 23.6 0 35.4-9.6 35.4-28.8Zm-8.4-102.9c0-14.4-8-21.6-24-21.6-8.4 0-15.2 2-20.4 6-5.2 4-7.8 9.8-7.8 17.4 0 7.6 2.3 13.9 6.9 18.9 4.6 5 11.1 9.7 19.5 14.1 5.4-3.8 9.6-7 12.6-9.6 3.2-2.6 6.2-6.2 9-10.8 2.8-4.6 4.2-9.4 4.2-14.4Z" fill="#000"/><path d="M260.605 655.873a94.209 94.209 0 0 0 30.565 20.375 94.417 94.417 0 0 0 72.115 0 94.187 94.187 0 0 0 30.565-20.375l18.155-18.105 18.154 18.105c17.669 17.622 41.634 27.521 66.622 27.521 24.989 0 48.954-9.899 66.623-27.521A93.834 93.834 0 0 0 591 589.431c0-24.92-9.927-48.82-27.596-66.442l-18.154-18.105-119.122-118.799c-7.806-7.785-20.44-7.785-28.246 0L278.759 504.884l-18.154 18.105a93.929 93.929 0 0 0-20.43 30.482 93.717 93.717 0 0 0 0 71.92 93.929 93.929 0 0 0 20.43 30.482ZM408.479 686.897l-60.03 59.557c-3.169 3.144-.942 8.549 3.522 8.549H472.03c4.464 0 6.69-5.405 3.521-8.549l-60.029-59.557a5 5 0 0 0-7.043 0Z" fill="#231F20"/><mask id="a" style="mask-type:alpha" maskUnits="userSpaceOnUse" x="233" y="379" width="179" height="376"><path fill="#D9D9D9" d="M233 379h179v376H233z"/></mask><g mask="url(#a)" fill="#393335"><path d="m408.479 686.897-60.03 59.557c-3.169 3.144-.942 8.549 3.522 8.549H472.03c4.464 0 6.69-5.405 3.521-8.549l-60.029-59.557a5 5 0 0 0-7.043 0ZM260.605 655.873a94.209 94.209 0 0 0 30.565 20.375 94.417 94.417 0 0 0 72.115 0 94.187 94.187 0 0 0 30.565-20.375l18.155-18.105 18.154 18.105c17.669 17.622 41.634 27.521 66.622 27.521 24.989 0 48.954-9.899 66.623-27.521A93.834 93.834 0 0 0 591 589.431c0-24.92-9.927-48.82-27.596-66.442l-18.154-18.105-119.122-118.799c-7.806-7.785-20.44-7.785-28.246 0L278.759 504.884l-18.154 18.105a93.929 93.929 0 0 0-20.43 30.482 93.717 93.717 0 0 0 0 71.92 93.929 93.929 0 0 0 20.43 30.482Z"/></g><path d="M88.711 402.294a26.326 26.326 0 0 0 18.61 7.69c3.456 0 6.878-.679 10.072-1.998a26.32 26.32 0 0 0 8.537-5.692l5.071-5.057 5.071 5.057a26.353 26.353 0 0 0 18.61 7.688c6.98 0 13.674-2.765 18.61-7.688A26.212 26.212 0 0 0 181 383.735a26.212 26.212 0 0 0-7.708-18.559l-5.071-5.057-33.689-33.598a5 5 0 0 0-7.061 0l-33.689 33.598-5.071 5.057a26.24 26.24 0 0 0-5.707 8.514 26.182 26.182 0 0 0 5.707 28.604ZM129.592 411.382l-15.303 15.183c-1.268 1.257-.377 3.419 1.408 3.419h30.607c1.785 0 2.676-2.162 1.408-3.419l-15.303-15.183a1.999 1.999 0 0 0-2.817 0Z" fill="#231F20"/><mask id="b" style="mask-type:alpha" maskUnits="userSpaceOnUse" x="81" y="324" width="50" height="106"><path fill="#D9D9D9" d="M81 324.955h50v105.028H81z"/></mask><g mask="url(#b)" fill="#393335"><path d="m129.592 411.382-15.303 15.183c-1.268 1.257-.377 3.419 1.408 3.419h30.607c1.785 0 2.676-2.162 1.408-3.419l-15.303-15.183a1.999 1.999 0 0 0-2.817 0ZM88.711 402.294a26.326 26.326 0 0 0 18.61 7.69c3.456 0 6.878-.679 10.072-1.998a26.32 26.32 0 0 0 8.537-5.692l5.071-5.057 5.071 5.057a26.353 26.353 0 0 0 18.61 7.688c6.98 0 13.674-2.765 18.61-7.688A26.212 26.212 0 0 0 181 383.735a26.212 26.212 0 0 0-7.708-18.559l-5.071-5.057-33.689-33.598a5 5 0 0 0-7.061 0l-33.689 33.598-5.071 5.057a26.24 26.24 0 0 0-5.707 8.514 26.182 26.182 0 0 0 5.707 28.604Z"/></g></svg>

<svg width="822" height="1122" viewBox="0 0 822 1122" fill="none" xmlns="http://www.w3.org/2000/svg">
<rect width="822" height="1122" rx="50" fill="#F1F7EE"/>
<path d="M343.977 1087H337.377C336.377 1087 335.677 1086.53 335.277 1085.6L315.877 1036.3V1079.1H322.177C323.177 1079.1 323.677 1079.6 323.677 1080.6V1085.5C323.677 1086.5 323.177 1087 322.177 1087H301.877C300.877 1087 300.377 1086.5 300.377 1085.5V1080.6C300.377 1079.6 300.877 1079.1 301.877 1079.1H307.177V1027.2H301.877C300.877 1027.2 300.377 1026.7 300.377 1025.7V1020.6C300.377 1019.6 300.877 1019.1 301.877 1019.1H319.377C320.444 1019.1 321.11 1019.57 321.377 1020.5L341.977 1074.2L363.077 1020.5C363.344 1019.57 364.01 1019.1 365.077 1019.1H381.777C382.777 1019.1 383.277 1019.6 383.277 1020.6V1025.7C383.277 1026.7 382.777 1027.2 381.777 1027.2H376.477V1079.1H381.777C382.777 1079.1 383.277 1079.6 383.277 1080.6V1085.5C383.277 1086.5 382.777 1087 381.777 1087H359.777C358.777 1087 358.277 1086.5 358.277 1085.5V1080.6C358.277 1079.6 358.777 1079.1 359.777 1079.1H365.777V1036.4L346.077 1085.6C345.677 1086.53 344.977 1087 343.977 1087ZM420.095 1057.3V1053.8C420.095 1049.07 418.762 1046.1 416.095 1044.9C414.828 1044.37 412.995 1044.1 410.595 1044.1C406.062 1044.1 403.328 1046.23 402.395 1050.5C402.195 1051.5 401.695 1052 400.895 1052H394.495C393.428 1052 392.962 1051.5 393.095 1050.5C393.362 1045.63 395.328 1042.07 398.995 1039.8C402.662 1037.53 407.328 1036.4 412.995 1036.4C424.928 1036.4 430.895 1041.87 430.895 1052.8V1079.1H435.195C436.195 1079.1 436.695 1079.6 436.695 1080.6V1085.5C436.695 1086.5 436.195 1087 435.195 1087H423.395C422.528 1087 422.028 1086.5 421.895 1085.5L421.195 1080.9C417.595 1085.77 412.395 1088.2 405.595 1088.2C401.328 1088.2 397.795 1087.1 394.995 1084.9C392.195 1082.63 390.795 1079.03 390.795 1074.1C390.795 1067.63 393.495 1063.2 398.895 1060.8C403.362 1058.73 408.695 1057.6 414.895 1057.4C416.162 1057.4 417.895 1057.37 420.095 1057.3ZM420.295 1071.9V1064.2C413.895 1064.2 409.962 1064.5 408.495 1065.1C407.028 1065.7 405.728 1066.3 404.595 1066.9C402.462 1068.03 401.395 1070.1 401.395 1073.1C401.395 1077.7 404.028 1080 409.295 1080C412.762 1080 415.462 1079.2 417.395 1077.6C419.328 1075.93 420.295 1074.03 420.295 1071.9ZM457.683 1045.7V1070.9C457.683 1074.03 458.083 1076.3 458.883 1077.7C459.683 1079.1 461.183 1079.8 463.383 1079.8C465.583 1079.8 467.717 1079.33 469.783 1078.4C470.517 1078.13 471.05 1078.4 471.383 1079.2L473.183 1083.8C473.25 1084 473.283 1084.3 473.283 1084.7C473.283 1085.03 472.95 1085.4 472.283 1085.8C469.083 1087.4 465.283 1088.2 460.883 1088.2C454.95 1088.2 451.05 1086.67 449.183 1083.6C447.85 1081.6 447.083 1079.67 446.883 1077.8C446.617 1075.27 446.483 1072.6 446.483 1069.8V1045.7H440.783C439.783 1045.7 439.283 1045.2 439.283 1044.2V1039C439.283 1038 439.783 1037.5 440.783 1037.5H446.483V1024C446.483 1023 446.983 1022.5 447.983 1022.5H456.183C457.183 1022.5 457.683 1023 457.683 1024V1037.5H467.783C468.783 1037.5 469.283 1038 469.283 1039V1044.2C469.283 1045.2 468.783 1045.7 467.783 1045.7H457.683ZM501.197 1088.2C493.264 1088.2 487.431 1085.9 483.697 1081.3C480.031 1076.63 478.197 1070.5 478.197 1062.9C478.197 1055.23 480.164 1048.9 484.097 1043.9C488.031 1038.9 493.697 1036.4 501.097 1036.4C504.764 1036.4 507.897 1037.1 510.497 1038.5C513.164 1039.83 515.197 1041.67 516.597 1044C519.264 1048.53 520.597 1053.77 520.597 1059.7C520.597 1062.5 520.464 1064.03 520.197 1064.3C519.931 1064.57 519.431 1064.7 518.697 1064.7H489.297C489.631 1069.5 490.797 1073.23 492.797 1075.9C494.864 1078.5 498.397 1079.8 503.397 1079.8C507.064 1079.8 510.831 1078.93 514.697 1077.2C515.631 1076.73 516.297 1077 516.697 1078L518.597 1082.6C518.931 1083.4 518.631 1084.07 517.697 1084.6C513.297 1087 507.797 1088.2 501.197 1088.2ZM489.297 1057.3H510.097C510.231 1048.97 506.964 1044.8 500.297 1044.8C496.364 1044.8 493.564 1046.07 491.897 1048.6C490.297 1051.07 489.431 1053.97 489.297 1057.3Z" fill="black"/>
<path d="M61.773 223.1C61.773 200.5 74.773 182.3 100.773 168.5C90.773 162.7 83.273 156.5 78.273 149.9C73.273 143.1 70.773 134.2 70.773 123.2C70.773 107 76.673 94.5 88.473 85.7C100.273 76.7 114.773 72.2 131.973 72.2C149.373 72.2 162.873 76.3 172.473 84.5C182.073 92.5 186.873 102.3 186.873 113.9C186.873 125.3 183.973 134.6 178.173 141.8C172.573 148.8 164.473 155.8 153.873 162.8C170.073 169.8 181.373 177.2 187.773 185C194.173 192.6 197.373 202.9 197.373 215.9C197.373 232.9 191.173 246.6 178.773 257C166.373 267.4 149.173 272.6 127.173 272.6C105.373 272.6 88.973 268.1 77.973 259.1C67.173 249.9 61.773 237.9 61.773 223.1ZM164.073 220.1C164.073 209.3 159.173 200.7 149.373 194.3C142.373 189.7 133.973 185.2 124.173 180.8C103.773 192.6 93.573 206 93.573 221C93.573 239.6 105.273 248.9 128.673 248.9C152.273 248.9 164.073 239.3 164.073 220.1ZM155.673 117.2C155.673 102.8 147.673 95.6 131.673 95.6C123.273 95.6 116.473 97.6 111.273 101.6C106.073 105.6 103.473 111.4 103.473 119C103.473 126.6 105.773 132.9 110.373 137.9C114.973 142.9 121.473 147.6 129.873 152C135.273 148.2 139.473 145 142.473 142.4C145.673 139.8 148.673 136.2 151.473 131.6C154.273 127 155.673 122.2 155.673 117.2Z" fill="black"/>
<path d="M260.605 655.873C269.353 664.601 279.739 671.525 291.17 676.248C302.602 680.972 314.854 683.403 327.228 683.403C339.602 683.403 351.854 680.972 363.285 676.248C374.717 671.525 385.103 664.601 393.85 655.873L412.005 637.768L430.159 655.873C447.828 673.495 471.793 683.394 496.781 683.394C521.77 683.394 545.735 673.495 563.404 655.873C581.073 638.252 591 614.352 591 589.431C591 564.511 581.073 540.611 563.404 522.989L545.25 504.884L426.128 386.085C418.322 378.3 405.688 378.3 397.882 386.085L278.759 504.884L260.605 522.989C251.854 531.713 244.911 542.071 240.175 553.471C235.438 564.872 233 577.091 233 589.431C233 601.771 235.438 613.991 240.175 625.391C244.911 636.791 251.854 647.149 260.605 655.873Z" fill="#231F20"/>
<path d="M408.479 686.897L348.449 746.454C345.28 749.598 347.507 755.003 351.971 755.003H472.03C476.494 755.003 478.72 749.598 475.551 746.454L415.522 686.897C413.572 684.963 410.428 684.963 408.479 686.897Z" fill="#231F20"/>
<mask id="mask0_1023_4902" style="mask-type:alpha" maskUnits="userSpaceOnUse" x="233" y="379" width="179" height="376">
<rect x="233" y="379" width="179" height="376" fill="#D9D9D9"/>
</mask>
<g mask="url(#mask0_1023_4902)">
<path d="M408.479 686.897L348.449 746.454C345.28 749.598 347.507 755.003 351.971 755.003H472.03C476.494 755.003 478.72 749.598 475.551 746.454L415.522 686.897C413.572 684.963 410.428 684.963 408.479 686.897Z" fill="#393335"/>
<path d="M260.605 655.873C269.353 664.601 279.739 671.525 291.17 676.248C302.602 680.972 314.854 683.403 327.228 683.403C339.602 683.403 351.854 680.972 363.285 676.248C374.717 671.525 385.103 664.601 393.85 655.873L412.005 637.768L430.159 655.873C447.828 673.495 471.793 683.394 496.781 683.394C521.77 683.394 545.735 673.495 563.404 655.873C581.073 638.252 591 614.352 591 589.431C591 564.511 581.073 540.611 563.404 522.989L545.25 504.884L426.128 386.085C418.322 378.3 405.688 378.3 397.882 386.085L278.759 504.884L260.605 522.989C251.854 531.713 244.911 542.071 240.175 553.471C235.438 564.872 233 577.091 233 589.431C233 601.771 235.438 613.991 240.175 625.391C244.911 636.791 251.854 647.149 260.605 655.873Z" fill="#393335"/>
</g>
<path d="M88.711 402.294C91.1544 404.732 94.0556 406.666 97.2487 407.986C100.442 409.305 103.864 409.984 107.321 409.984C110.777 409.984 114.199 409.305 117.393 407.986C120.586 406.666 123.487 404.732 125.93 402.294L131.001 397.237L136.072 402.294C141.008 407.217 147.702 409.982 154.682 409.982C161.662 409.982 168.356 407.217 173.292 402.294C178.227 397.372 181 390.696 181 383.735C181 376.774 178.227 370.098 173.292 365.176L168.221 360.119L134.532 326.521C132.581 324.575 129.422 324.575 127.471 326.521L93.782 360.119L88.711 365.176C86.2664 367.613 84.3272 370.506 83.0041 373.69C81.681 376.875 81 380.288 81 383.735C81 387.182 81.681 390.595 83.0041 393.78C84.3272 396.964 86.2664 399.858 88.711 402.294Z" fill="#231F20"/>
<path d="M129.592 411.382L114.289 426.565C113.021 427.822 113.912 429.984 115.697 429.984H146.304C148.089 429.984 148.98 427.822 147.712 426.565L132.409 411.382C131.629 410.608 130.372 410.608 129.592 411.382Z" fill="#231F20"/>
<mask id="mask1_1023_4902" style="mask-type:alpha" maskUnits="userSpaceOnUse" x="81" y="324" width="50" height="106">
<rect x="81" y="324.955" width="50" height="105.028" fill="#D9D9D9"/>
</mask>
<g mask="url(#mask1_1023_4902)">
<path d="M129.592 411.382L114.289 426.565C113.021 427.822 113.912 429.984 115.697 429.984H146.304C148.089 429.984 148.98 427.822 147.712 426.565L132.409 411.382C131.629 410.608 130.372 410.608 129.592 411.382Z" fill="#393335"/>
<path d="M88.711 402.294C91.1544 404.732 94.0556 406.666 97.2487 407.986C100.442 409.305 103.864 409.984 107.321 409.984C110.777 409.984 114.199 409.305 117.393 407.986C120.586 406.666 123.487 404.732 125.93 402.294L131.001 397.237L136.072 402.294C141.008 407.217 147.702 409.982 154.682 409.982C161.662 409.982 168.356 407.217 173.292 402.294C178.227 397.372 181 390.696 181 383.735C181 376.774 178.227 370.098 173.292 365.176L168.221 360.119L134.532 326.521C132.581 324.575 129.422 324.575 127.471 326.521L93.782 360.119L88.711 365.176C86.2664 367.613 84.3272 370.506 83.0041 373.69C81.681 376.875 81 380.288 81 383.735C81 387.182 81.681 390.595 83.0041 393.78C84.3272 396.964 86.2664 399.858 88.711 402.294Z" fill="#393335"/>
</g>
</svg>
